dist/icons/payment-methods/mastercard.svg

<svg width="38" height="24" xmlns="http://www.w3.org/2000/svg"><g fill-rule="nonzero" fill="none"><path d="M35 0H3C1.3 0 0 1.3 0 3v18c0 1.7 1.4 3 3 3h32c1.7 0 3-1.3 3-3V3c0-1.7-1.4-3-3-3z" fill="#000" opacity=".07"/><path d="M35 1c1.1 0 2 .9 2 2v18c0 1.1-.9 2-2 2H3c-1.1 0-2-.9-2-2V3c0-1.1.9-2 2-2h32" fill="#FFF"/><circle fill="#EB001B" cx="15" cy="12" r="7"/><circle fill="#F79E1B" cx="23" cy="12" r="7"/><path d="M22 12c0-2.4-1.2-4.5-3-5.7-1.8 1.3-3 3.4-3 5.7 0 2.3 1.2 4.5 3 5.7 1.8-1.2 3-3.3 3-5.7z" fill="#FF5F00"/></g></svg>

<?xml version="1.0" encoding="UTF-8"?>
<svg width="38px" height="24px" viewBox="0 0 38 24" version="1.1" xmlns="http://www.w3.org/2000/svg" xmlns:xlink="http://www.w3.org/1999/xlink">
    <title>mastercard</title>
    <g id="Symbols" stroke="none" stroke-width="1" fill="none" fill-rule="evenodd">
        <g id="Footer/Links/Desktop" transform="translate(-1168.000000, -408.000000)" fill-rule="nonzero">
            <g id="mastercard" transform="translate(1168.000000, 408.000000)">
                <path d="M35,0 L3,0 C1.3,0 0,1.3 0,3 L0,21 C0,22.7 1.4,24 3,24 L35,24 C36.7,24 38,22.7 38,21 L38,3 C38,1.3 36.6,0 35,0 Z" id="Path" fill="#000000" opacity="0.07"></path>
                <path d="M35,1 C36.1,1 37,1.9 37,3 L37,21 C37,22.1 36.1,23 35,23 L3,23 C1.9,23 1,22.1 1,21 L1,3 C1,1.9 1.9,1 3,1 L35,1" id="Path" fill="#FFFFFF"></path>
                <circle id="Oval" fill="#EB001B" cx="15" cy="12" r="7"></circle>
                <circle id="Oval" fill="#F79E1B" cx="23" cy="12" r="7"></circle>
                <path d="M22,12 C22,9.6 20.8,7.5 19,6.3 C17.2,7.6 16,9.7 16,12 C16,14.3 17.2,16.5 19,17.7 C20.8,16.5 22,14.4 22,12 Z" id="Path" fill="#FF5F00"></path>
            </g>
        </g>
    </g>
</svg>
